src/assets/outline/QuoteDownSquare.svg

<svg width="24" height="24" viewBox="0 0 24 24"  xmlns="http://www.w3.org/2000/svg">
<path d="M15 22.75H9C3.57 22.75 1.25 20.43 1.25 15V9C1.25 3.57 3.57 1.25 9 1.25H15C20.43 1.25 22.75 3.57 22.75 9V15C22.75 20.43 20.43 22.75 15 22.75ZM9 2.75C4.39 2.75 2.75 4.39 2.75 9V15C2.75 19.61 4.39 21.25 9 21.25H15C19.61 21.25 21.25 19.61 21.25 15V9C21.25 4.39 19.61 2.75 15 2.75H9Z" />
<path d="M9.68 16.78H8.19C7.12 16.78 6.25 15.91 6.25 14.84V12.1699C6.25 11.7599 6.59 11.4199 7 11.4199H9.68C10.77 11.4199 11.62 12.2699 11.62 13.3599V14.8499C11.61 15.9199 10.76 16.78 9.68 16.78ZM7.75 12.9099V14.83C7.75 15.07 7.95 15.27 8.19 15.27H9.68C10 15.27 10.12 15.03 10.12 14.83V13.34C10.12 13.14 10.01 12.9 9.68 12.9H7.75V12.9099Z" />
<path d="M7 12.91C6.59 12.91 6.25 12.57 6.25 12.16C6.25 9.07998 6.92 8.39002 8.71 7.33002C9.06 7.12002 9.53 7.24003 9.74 7.59003C9.95 7.94003 9.83 8.41 9.48 8.62C8.12 9.43 7.75 9.63998 7.75 12.16C7.75 12.58 7.41 12.91 7 12.91Z" />
<path d="M15.8099 16.78H14.3199C13.2499 16.78 12.3799 15.91 12.3799 14.84V12.1699C12.3799 11.7599 12.7199 11.4199 13.1299 11.4199H15.8099C16.8999 11.4199 17.7499 12.2699 17.7499 13.3599V14.8499C17.7499 15.9199 16.8999 16.78 15.8099 16.78ZM13.8899 12.9099V14.83C13.8899 15.07 14.0899 15.27 14.3299 15.27H15.8199C16.1399 15.27 16.2599 15.03 16.2599 14.83V13.34C16.2599 13.14 16.1499 12.9 15.8199 12.9H13.8899V12.9099Z" />
<path d="M13.1401 12.91C12.7301 12.91 12.3901 12.57 12.3901 12.16C12.3901 9.07998 13.0601 8.39002 14.8501 7.33002C15.2101 7.12002 15.6701 7.24003 15.8801 7.59003C16.0901 7.94003 15.9701 8.41 15.6201 8.62C14.2601 9.43 13.8901 9.63998 13.8901 12.16C13.8901 12.58 13.5501 12.91 13.1401 12.91Z" />
</svg>

<?xml version="1.0" encoding="UTF-8"?>
<svg width="24" height="24" viewBox="0 0 24 24" xmlns="http://www.w3.org/2000/svg">
 <path d="m15 22.75h-6c-5.43 0-7.75-2.32-7.75-7.75v-6c0-5.43 2.32-7.75 7.75-7.75h6c5.43 0 7.75 2.32 7.75 7.75v6c0 5.43-2.32 7.75-7.75 7.75zm-6-20c-4.61 0-6.25 1.64-6.25 6.25v6c0 4.61 1.64 6.25 6.25 6.25h6c4.61 0 6.25-1.64 6.25-6.25v-6c0-4.61-1.64-6.25-6.25-6.25h-6z"/>
 <path d="m9.68 16.78h-1.49c-1.07 0-1.94-0.87-1.94-1.94v-2.6701c0-0.41 0.34-0.75 0.75-0.75h2.68c1.09 0 1.94 0.85 1.94 1.94v1.49c-0.01 1.07-0.86 1.9301-1.94 1.9301zm-1.93-3.8701v1.9201c0 0.24 0.2 0.44 0.44 0.44h1.49c0.32 0 0.44-0.24 0.44-0.44v-1.49c0-0.2-0.11-0.44-0.44-0.44h-1.93v0.0099z"/>
 <path d="m7 12.91c-0.41 0-0.75-0.34-0.75-0.75 0-3.08 0.67-3.77 2.46-4.83 0.35-0.21 0.82-0.08999 1.03 0.26001s0.09 0.81997-0.26 1.03c-1.36 0.81-1.73 1.02-1.73 3.54 0 0.42-0.34 0.75-0.75 0.75z"/>
 <path d="m15.81 16.78h-1.49c-1.07 0-1.94-0.87-1.94-1.94v-2.6701c0-0.41 0.34-0.75 0.75-0.75h2.68c1.09 0 1.94 0.85 1.94 1.94v1.49c0 1.07-0.85 1.9301-1.94 1.9301zm-1.92-3.8701v1.9201c0 0.24 0.2 0.44 0.44 0.44h1.49c0.32 0 0.44-0.24 0.44-0.44v-1.49c0-0.2-0.11-0.44-0.44-0.44h-1.93v0.0099z"/>
 <path d="m13.14 12.91c-0.41 0-0.75-0.34-0.75-0.75 0-3.08 0.67-3.77 2.46-4.83 0.36-0.21 0.82-0.08999 1.03 0.26001s0.09 0.81997-0.26 1.03c-1.36 0.81-1.73 1.02-1.73 3.54 0 0.42-0.34 0.75-0.75 0.75z"/>
</svg>
